sec/logo_standard/lsu_tigers.svg

<?xml version="1.0" encoding="UTF-8" standalone="no"?>
<!-- Created with Inkscape (http://www.inkscape.org/) -->

<svg
   xmlns:dc="http://purl.org/dc/elements/1.1/"
   xmlns:cc="http://creativecommons.org/ns#"
   xmlns:rdf="http://www.w3.org/1999/02/22-rdf-syntax-ns#"
   xmlns:svg="http://www.w3.org/2000/svg"
   xmlns="http://www.w3.org/2000/svg"
   version="1.1"
   width="280"
   height="200"
   id="svg3000">
  <defs
     id="defs3002" />
  <metadata
     id="metadata3005">
    <rdf:RDF>
      <cc:Work
         rdf:about="">
        <dc:format>image/svg+xml</dc:format>
        <dc:type
           rdf:resource="http://purl.org/dc/dcmitype/StillImage" />
        <dc:title></dc:title>
      </cc:Work>
    </rdf:RDF>
  </metadata>
  <g
     transform="translate(-222.85709,-176.09258)"
     id="layer1">
    <g
       transform="matrix(0.61139376,0,0,0.61139376,208.48934,129.78943)"
       id="g3">
      <path
         d="m 69.256,183.591 c 0,37.678 0,75.356 0,113.035 26.132,0 52.264,0 78.396,0 0,8.51 0,17.017 0,25.525 -40.717,0 -81.435,0 -122.152,0 0,-46.186 0,-92.375 0,-138.561 14.585,0.001 29.17,0.001 43.756,0.001 z"
         id="path5"
         style="fill:#461d7c;fill-rule:evenodd;stroke:#fdd023;stroke-width:4" />
      <path
         d="m 313.562,183.591 c 0,7.9 0,15.799 0,23.701 l -80.219,0 c -11.766,0.772 -23.124,6.452 -23.702,16.408 -0.279,4.805 0.491,11.857 -0.02,16.645 0,0 74.818,-0.551 103.941,-0.236 0,20.054 0,40.109 0,60.164 -7.398,10.611 -18.442,17.905 -32.803,21.371 -4.984,1.203 -41.405,0.508 -58.356,0.508 -21.204,0 -41.82,0 -58.341,0 0,0 -0.076,-21.22 0.126,-25.912 15.735,0 35.448,0.387 52.746,0.387 17.192,0 34.598,1.993 47.403,-3.646 4.79,-4.936 3.27,-26.332 3.27,-26.332 0.599,-1.493 -103.418,-0.597 -103.418,-0.597 l -0.126,-49.644 c 2.22,-16.414 20.153,-32.255 32.817,-32.816 15.375,-0.682 37.069,0 58.343,0 20.724,-0.001 41.863,-0.001 58.339,-0.001 z"
         id="path7"
         style="fill:#461d7c;fill-rule:evenodd;stroke:#fdd023;stroke-width:4" />
      <path
         d="m 375.551,183.591 c 0,37.07 0,74.144 0,111.212 0.854,0.54 54.654,0.24 54.654,0.24 7.475,-8.968 5.381,-16.141 5.509,-54.935 0.069,-21.2 0,-41.796 0,-56.518 14.585,0 29.171,0 43.756,0 0,38.894 0,77.789 0,116.682 -2.336,6.428 -20.569,20.476 -30.434,21.371 -0.59,0.055 -44.284,0.508 -60.725,0.508 -19.287,0 -39.88,0 -56.519,0 0,-46.186 0,-92.375 0,-138.561 14.586,0.001 29.173,0.001 43.759,0.001 z"
         id="path9"
         style="fill:#461d7c;fill-rule:evenodd;stroke:#fdd023;stroke-width:4" />
    </g>
  </g>
</svg>

<?xml version="1.0" encoding="UTF-8" standalone="no"?>
<!-- Generator: Adobe Illustrator 13.0.2, SVG Export Plug-In . SVG Version: 6.00 Build 14948)  -->
<svg xmlns:svg="http://www.w3.org/2000/svg" xmlns="http://www.w3.org/2000/svg" xmlns:sodipodi="http://sodipodi.sourceforge.net/DTD/sodipodi-0.dtd" xmlns:inkscape="http://www.inkscape.org/namespaces/inkscape" version="1.0" id="Layer_1" x="0px" y="0px" width="500" height="200" viewBox="0 0 500 500" enable-background="new 0 0 500 500" xml:space="preserve" sodipodi:version="0.32" inkscape:version="0.46" sodipodi:docname="LSU text logo.svg" inkscape:output_extension="org.inkscape.output.svg.inkscape"><defs id="defs12"/><sodipodi:namedview inkscape:window-height="667" inkscape:window-width="640" inkscape:pageshadow="2" inkscape:pageopacity="0.0" guidetolerance="10.0" gridtolerance="10.0" objecttolerance="10.0" borderopacity="1.0" bordercolor="#666666" pagecolor="#ffffff" id="base" showgrid="false" inkscape:zoom="0.924" inkscape:cx="250" inkscape:cy="250" inkscape:window-x="654" inkscape:window-y="373" inkscape:current-layer="Layer_1"/><g id="g3" transform="matrix(2.6430633,0,0,2.6430633,-413.30277,-414.9168)"><path clip-rule="evenodd" d="M 69.256,183.591 C 69.256,221.269 69.256,258.947 69.256,296.626 C 95.388,296.626 121.52,296.626 147.652,296.626 C 147.652,305.136 147.652,313.643 147.652,322.151 C 106.935,322.151 66.217,322.151 25.5,322.151 C 25.5,275.965 25.5,229.776 25.5,183.59 C 40.085,183.591 54.67,183.591 69.256,183.591 z" id="path5" style="fill:#461d7c;fill-rule:evenodd;stroke:#fdd023;stroke-width:4"/><path clip-rule="evenodd" d="M 313.562,183.591 C 313.562,191.491 313.562,199.39 313.562,207.292 L 233.343,207.292 C 221.577,208.064 210.219,213.744 209.641,223.7 C 209.362,228.505 210.132,235.557 209.621,240.345 C 209.621,240.345 284.439,239.794 313.562,240.109 C 313.562,260.163 313.562,280.218 313.562,300.273 C 306.164,310.884 295.12,318.178 280.759,321.644 C 275.775,322.847 239.354,322.152 222.403,322.152 C 201.199,322.152 180.583,322.152 164.062,322.152 C 164.062,322.152 163.986,300.932 164.188,296.24 C 179.923,296.24 199.636,296.627 216.934,296.627 C 234.126,296.627 251.532,298.62 264.337,292.981 C 269.127,288.045 267.607,266.649 267.607,266.649 C 268.206,265.156 164.189,266.052 164.189,266.052 L 164.063,216.408 C 166.283,199.994 184.216,184.153 196.88,183.592 C 212.255,182.91 233.949,183.592 255.223,183.592 C 275.947,183.591 297.086,183.591 313.562,183.591 z" id="path7" style="fill:#461d7c;fill-rule:evenodd;stroke:#fdd023;stroke-width:4"/><path clip-rule="evenodd" d="M 375.551,183.591 C 375.551,220.661 375.551,257.735 375.551,294.803 C 376.405,295.343 430.205,295.043 430.205,295.043 C 437.68,286.075 435.586,278.902 435.714,240.108 C 435.783,218.908 435.714,198.312 435.714,183.59 C 450.299,183.59 464.885,183.59 479.47,183.59 C 479.47,222.484 479.47,261.379 479.47,300.272 C 477.134,306.7 458.901,320.748 449.036,321.643 C 448.446,321.698 404.752,322.151 388.311,322.151 C 369.024,322.151 348.431,322.151 331.792,322.151 C 331.792,275.965 331.792,229.776 331.792,183.59 C 346.378,183.591 360.965,183.591 375.551,183.591 z" id="path9" style="fill:#461d7c;fill-rule:evenodd;stroke:#fdd023;stroke-width:4"/></g></svg>
